X:3
T:Fj\"arran han dr\"ojer
C:anon.
O:Finland
S:Gustav Lange: Praktisk Violinskole, I. Del
S:Frank Nordberg tradtunes 2001-9-6
M:2/4
L:1/8
Q:1/4=72
K:Em
V:1 %program 1 40
V:2 %program 1 41
V:1
B2BB | g2fe | e2ed | B2G2 | A2AA | d2ed | A2cc | B2G2 |
| B2BB | g2fe | e2ed | B2G2 | BAGA | B4 | BAFG | E3z |]
V:2
EFGF | EGAB | cC2D | G,B,DG- | GFEF | DAcB | AGFE | ^DF2E |
| GFE=D | ^CB,^A,C | B,FGA | GG,A,B, | [C4E4] | [G,4E4] | [A,2E2][B,2^D2] | E3z |]
